!!!COM: Palestrina, Giovanni Perluigi da
!!!OPR: Missa In te Domine speravi (1593-4)
!!!OMD: Credo
!!!OTL: Et in Spiritum
**kern	**kern	**kern	**kern
*Ibass	*Itenor	*Icalto	*Icant
!Bassus	!Tenor	!Altus	!Cantus
*clefF4	*clefGv2	*clefG2	*clefG2
*k[]	*k[]	*k[]	*k[]
*D:dor	*D:dor	*D:dor	*D:dor
*M4/2	*M4/2	*M4/2	*M4/2
=133	=133	=133	=133
1A	1A	0r	0r
2G#	2B	.	.
[2A	[2c	.	.
=134	=134	=134	=134
4A]	4c]	1A	0r
4A	4c	.	.
2F	2d	.	.
2G	1e	2B	.
2A	.	[2c	.
=135	=135	=135	=135
1F	1A	4c]	0r
.	.	4c	.
.	.	2d	.
1E	2B	1e	.
.	2c	.	.
=136	=136	=136	=136
4D	2d	1f	0r
4E	.	.	.
4F	4c	.	.
4G	4B	.	.
4A	1c	2e	.
4B	.	.	.
[2c	.	2e	.
=137	=137	=137	=137
4c]	1G	1d	1r
8B	.	.	.
8A	.	.	.
2B	.	.	.
2c	1A	[1e	2r
[2A	.	.	[2cc
=138	=138	=138	=138
2A]	0r	2e]	2cc]
2B	.	2d	2b
2c	.	2e	2a
2d	.	2f#	2a
=139	=139	=139	=139
4G	1.d	1g	4b
4A	.	.	4cc
4B	.	.	4dd
4c	.	.	4ee
2d	.	4f	2ff
.	.	4g	.
2c	2e	4a	[2ee
.	.	8g	.
.	.	8a	.
=140	=140	=140	=140
2B-	2f	1b-	4ee]
.	.	.	4dd
2G	2g	.	1dd
1A	1e	[1a	.
.	.	.	2cc#
=141	=141	=141	=141
2r	2d	0a]	0dd
1d	1f	.	.
2d	2f	.	.
=142	=142	=142	=142
2c#	2e	2r	1r
2c#	2e	1a	.
2.d	2.f	.	2r
.	.	2a	[2dd
4c	4e	.	.
=143	=143	=143	=143
2B	2d	2g#	2dd]
2B	2d	2g#	2dd
1A	2e	2.a	2cc#
.	[2A	.	2cc#
.	.	4g	.
=144	=144	=144	=144
1D	2A]	2f	2.dd
.	2.d	2f	.
.	.	.	4cc
1G	.	2d	2b
.	4c	.	.
.	2B	[2e	2g
=145	=145	=145	=145
1F	1A	2e]	1.a
.	.	2d	.
1E	1B	1e	.
.	.	.	2g
=146	=146	=146	=146
0r	1A	2e	1cc
.	.	1a	.
.	2r	.	1b
.	[2e	2g	.
=147	=147	=147	=147
1.A	2e]	1cc	1a
.	2c	.	.
.	1f	1a	1r
2F	.	.	.
=148	=148	=148	=148
1c	1.e	2g	0r
.	.	2.cc	.
2A	.	.	.
.	.	4b	.
2d	2f	[2a	.
=149	=149	=149	=149
2c	2e	2a]	2r
2B	2d	2g#	1dd
1A	1e	1a	.
.	.	.	2cc
=150	=150	=150	=150
1D	2r	1a	1ff
.	1d	.	.
1A	.	1a	1ee
.	2c	.	.
=151	=151	=151	=151
2.D	1.f	1.a	1dd
4E	.	.	.
2F	.	.	1cc
2C	2e	2g	.
=152	=152	=152	=152
1D	2.d	1f	2r
.	.	.	2a
.	4c	.	.
1E	1B	[1e	2a
.	.	.	2g
=153	=153	=153	=153
2r	1A	0e]	1cc
2A	.	.	.
2A	2r	.	2cc
2G	2e	.	[2b
=154	=154	=154	=154
2c	2e	1r	4b]
.	.	.	4a
2c	2e	.	1a
1B	2.d	2r	.
.	.	2d	2g#
.	4e	.	.
=155	=155	=155	=155
1A	2f	2d	[0a
.	2e	2c	.
2r	1d	2f	.
[2d	.	2f	.
=156	=156	=156	=156
2d]	2A	1e	1a]
2c#	1a	.	.
2d	.	1d	1r
2B	2g#	.	.
=157	=157	=157	=157
1A	2a	2r	0r
.	2f	1a	.
[1c	1e	.	.
.	.	2g	.
=158	=158	=158	=158
2c]	1g	2e	2r
2B	.	2g	1dd
2.A	2f	[1a	.
.	[2e	.	2cc#
4G	.	.	.
=159	=159	=159	=159
2F	4e]	2a]	2dd
.	4d	.	.
2G	1d	4g	2b
.	.	4f	.
1A	.	2e	2a
.	2c#	[2a	2ee
=160	=160	=160	=160
0r	2d	2a]	2ff
.	2A	2a	2.ee
.	1B-	4g	.
.	.	4f	4dd
.	.	4f	[2dd
.	.	8e	.
.	.	8d	.
=161	=161	=161	=161
1r	1A	1e	2dd]
.	.	.	2cc#
2r	2d	2d	1dd
2d	2d	2a	.
=162	=162	=162	=162
2c#	2e	2a	0r
2d	2f	2a	.
1G	1g	1b-	.
=163	=163	=163	=163
2A	2.f	2.a	2r
2D	.	.	2dd
.	4e	4g	.
2D	2d	2f	2dd
2A	2c#	2e	2ee
=164	=164	=164	=164
0D	0d	2d	0ff
.	.	2a	.
.	.	2a	.
.	.	2b	.
=165	=165	=165	=165
0r	2r	2cc	2.ee
.	2A	4cc	.
.	.	4b	4dd
.	2A	2a	2cc
.	2e	2g#	2b
=166	=166	=166	=166
2r	2A	2a	2a
2d	2f	2d	2a
2c#	2e	2e	2a
2d	2d	2f	2a
=167	=167	=167	=167
2G	2.d	2.g	2.b-
2G	.	.	.
.	4d	4g	4a
2.A	2.c	2f	2a
.	.	2e	2cc
4G	4B	.	.
=168	=168	=168	=168
2F	2A	2d	2dd
2E	2G	2c#	2ee
1D	1A	2d	2.ff
.	.	2a	.
.	.	.	4ff
=169	=169	=169	=169
1r	0r	2.a	2ff
.	.	.	2ee
.	.	4g	.
2r	.	2f	2dd
2A	.	2e	2cc#
=170	=170	=170	=170
2F	2r	1d	1dd
2G	2d	.	.
2A	2c	1r	1r
2B	2d	.	.
=171	=171	=171	=171
2c	2e	2r	0r
1d	2f	2a	.
.	2d	2f	.
4c	4e	2g	.
4B	4d	.	.
=172	=172	=172	=172
2A	4e	2a	0r
.	4f#	.	.
2G	1g	2b	.
1A	.	2cc	.
.	2f#	2a	.
=173	=173	=173	=173
1G	1g	1b-	2r
.	.	.	2dd
1r	2r	1a	2cc#
.	2d	.	2dd
=174	=174	=174	=174
0r	2c#	2r	2ee
.	1d	1a	1ff
.	2e	2g	2ee
=175	=175	=175	=175
0r	2f	2a	1dd
.	2g	2b	.
.	4c	2cc	1ee
.	4d	.	.
.	4e	2cc	.
.	4f	.	.
=176	=176	=176	=176
0r	2g	2b	2.dd
.	2d	1a	.
.	.	.	4cc
.	1e	.	4b
.	.	.	4a
.	.	2g#	2b
=177	=177	=177	=177
2r	1f	1a	2a
1D	.	.	1dd
.	[1f	2r	.
2D	.	[2a	2dd
=178	=178	=178	=178
2.F	2f]	2a]	0cc
.	2f	2a	.
4G	.	.	.
1A	1e	1a	.
=179	=179	=179	=179
1E	1e	1g#	1b
2.A	2.e	2.a	2.cc#
4A	4e	4a	4cc#
=180	=180	=180	=180
2A	2e	2a	2cc#
2A	2e	2a	2cc#
1d	1f#	1a	1dd
=181	=181	=181	=181
1G	1g	1b-	2dd
.	.	.	1dd
1A	2f	1a	.
.	2e	.	2cc#
=182	=182	=182	=182
1B-	4d	1f	2.dd
.	4e	.	.
.	2.f	.	.
.	.	.	4cc
1G	.	1g	1b-
.	8e	.	.
.	8d	.	.
.	2e	.	.
=183	=183	=183	=183
1F	1f	1.c	[0a
1A	1e	.	.
.	.	2c	.
=184	=184	=184	=184
1D	1f	1d	1a]
2A	2e	2c	2r
2A	2c	2A	2ee
=185	=185	=185	=185
1D	2d	1a	1ff
.	2d	.	.
1A	2c	2a	2ee
.	2A	4r	2cc
.	.	4a	.
=186	=186	=186	=186
0r	2G	1b-	2dd
.	2g	.	1ee
.	2f	2a	.
.	2d	2f	[2dd
=187	=187	=187	=187
2r	2e	2g	2dd]
2A	2.f	2a	2cc
1B-	.	4d	1dd
.	4e	4e	.
.	2d	4f	.
.	.	4d	.
=188	=188	=188	=188
2A	2c#	2e	1r
2F	1d	2f	.
2G	.	1e	2r
2A	2c#	.	2ee
=189	=189	=189	=189
4D	1d	0a	1ff
4E	.	.	.
4F	.	.	.
4G	.	.	.
4A	1r	.	2ee
4B	.	.	.
4c	.	.	2cc
4A	.	.	.
=190	=190	=190	=190
4B	1r	2g	2dd
4c	.	.	.
1d	.	2f	2dd
.	2r	1e	2ee
2c#	2e	.	2ee
=191	=191	=191	=191
1d	1f	2r	2.a
.	.	1a	.
.	.	.	4b
1A	2e	.	4cc
.	.	.	4dd
.	2c	2a	[2ee
=192	=192	=192	=192
2B-	2d	2g	4ee]
.	.	.	4dd
2B-	2d	4f	2dd
.	.	4g	.
2.A	2.e	4a	2cc
.	.	4b	.
.	.	[2cc	[2ee
4A	4f#	.	.
=193	=193	=193	=193
1G	1g	2cc]	2ee]
.	.	2b-	1dd
1A	1e	1a	.
.	.	.	2cc#
=194	=194	=194	=194
0D	0f#	0a	0dd
==	==	==	==
*-	*-	*-	*-
!!!CDT: 1525/^1526/-1594/2/2
!!!OCY: Italia
!!!AGN: Mass (Parody)
!!!AST: renaissance, vocal
!!!ASW: Motet (?Lhéritier)
!!!PWK: Masses, Book 6
!!!RNB: Cadence finals: A
!!!YOR: Le Opere Complete, v. 21, p. 26
!!!YOO: Rome, Italy: Fratelli Scalera
!!!END: 1992//
!!!EED: John Miller
!!!YEC: Copyright 2000, John Miller
!!!YEN: United States of America
!!!YEM: Rights to all derivative electronic formats reserved.
!!!YEM: Refer to licensing agreement for further details.
!!!YEM: This file must be accompanied by the licensing agreement.
!!!YEM: A copy of the licensing agreement may be found at http://www.music-cog.ohio-state.edu/HumdrumDatabases/Palestrina/license.txt
!!!EMD: converted to Humdrum by Bret Aarden
